X:1
T:As Tears Go By
M:6/8
R:Jig
C:Rolling Stones, Adapt. Cyrille Gaillard 21.11.2011
K:G
|: "G" GGG edB|"A" BAd ^cAG|"C" c2e gfe|"D" edf afd :|
|"C" c2e gfe| "D" d2 f agf|"G" gag fgf|"Em" e2 B GEB|
|"C" c2e gfe| "D" d2 f agf|"G" gag cdg|"G" Bdg Adg|
